X: 2
T: She Moved Through The Fair
R: waltz
M: 3/4
L: 1/8
K: Dmaj
(3ABc | "G"d2"Fm"c2"G"d2 | "A"e2e4- | e4dB | "G"G2>A2A2 | "A"A6- | A4 ef |"A"g2a2>e2 | "Fm"f2e2>c2 | "G"d2c2d2 | "A"e6- | e4 ef |"A"g2a2>e2 | "Fm"f2e2>c2 | "G"d2c2d2 | "A"e2e4- | e4 (3ABc |"G"d2"Fm"c2"G"d2 | "A"e2e4- | e4 dB | "G"G2A2A2 | "A"A6- | A4 |]


Tune 4735	Setting 23114

